public/svg/enterprise_compliance/user-management.svg

<svg width="80" height="68" viewBox="0 0 80 68" fill="none" xmlns="http://www.w3.org/2000/svg">
<g clip-path="url(#clip0_328_103699)">
<path d="M53.0069 60.985H6C6 50.8186 14.2428 42.5758 24.4092 42.5758C24.3462 42.7278 22.9081 46.4267 25.2283 49.3732C26.759 51.319 28.9568 51.7007 29.5053 51.7786C30.0538 51.7118 32.2331 51.3894 33.7787 49.5066C35.3131 47.6386 35.617 44.9553 34.6015 42.5721C35.7801 42.5647 42.4477 42.6277 47.7551 48.013C52.9439 53.2759 53.018 59.7545 53.0106 60.9813L53.0069 60.985Z" fill="#4389FA" fill-opacity="0.25"/>
<path d="M40.7234 27.9363C43.1511 25.5717 43.266 21.7357 42.5099 18.6372C42.1355 17.0991 41.5166 15.561 40.5715 14.2823C39.5374 12.8813 38.155 12.0029 36.413 11.7139C34.6711 11.4248 32.703 11.7064 31.0204 12.4143L31.4503 12.4699C28.2147 10.8799 24.5047 11.258 21.573 13.3187C19.1454 15.0273 17.5628 17.618 17.1181 20.5608C16.7808 22.7883 17.0217 25.0565 17.737 27.1876C17.8927 27.6509 18.7303 27.7769 18.8081 27.1876C18.9193 26.35 19.2084 25.5939 19.605 24.9194C20.3944 23.574 21.7509 22.8772 23.3706 23.1404C24.7382 23.3627 25.8686 24.1373 27.1547 24.5895C28.1739 24.949 29.271 25.0825 30.3347 24.8712C32.047 24.5302 33.359 23.2404 34.2226 21.7839C34.7748 20.8536 35.227 19.7973 35.4605 18.7373L34.3672 18.589C34.2893 19.8603 34.7267 21.2613 35.4865 22.2694C36.2462 23.2775 37.2506 23.826 38.4218 24.2078C39.278 24.4857 40.2194 25.0306 40.2268 26.0016C40.2268 26.476 40.0897 26.8874 39.8451 27.2618C39.5078 27.7769 40.1453 28.2217 40.6048 28.0215C41.5907 27.5953 42.9695 27.536 43.2882 28.8295C43.455 29.5078 43.1103 30.1823 42.8731 30.8013C42.6359 31.4202 42.3839 32.0058 42.0837 32.584C41.7427 33.24 41.3572 33.9257 40.779 34.4038C40.7049 34.4631 40.805 34.389 40.7086 34.4557C40.6641 34.4853 40.6197 34.515 40.5752 34.5409C40.5381 34.5632 40.5011 34.5817 40.464 34.6002C40.3936 34.6373 40.553 34.5706 40.4232 34.6113C40.3862 34.6225 40.3491 34.6299 40.312 34.641C40.1934 34.6743 40.4084 34.6336 40.3269 34.641C40.2639 34.6447 40.2046 34.641 40.1416 34.641C40.3083 34.6484 40.1786 34.641 40.0971 34.615C40.1341 34.6262 40.1934 34.678 40.0897 34.6039C39.9451 34.5039 40.1749 34.6892 40.0934 34.6113C39.7932 34.3148 39.278 34.452 39.1631 34.856C37.9363 39.133 35.2937 43.8622 30.5904 44.6702C30.4237 44.6999 30.5941 44.6702 30.5534 44.6776C30.5089 44.6813 30.4644 44.6887 30.4199 44.6925C30.3495 44.6999 30.2828 44.7036 30.2124 44.7073C30.142 44.711 30.079 44.7073 30.0085 44.711C29.6453 44.711 29.2821 44.7221 28.9189 44.6925C28.8744 44.6887 28.8299 44.6813 28.7855 44.6776C28.7521 44.6739 28.9078 44.6999 28.7484 44.6702C28.6261 44.648 28.5075 44.6294 28.3852 44.6035C28.0813 44.5405 27.7774 44.4552 27.4846 44.3515C26.7507 44.0994 26.0095 43.7029 25.3238 43.2136C22.5885 41.2604 21.0764 37.9952 20.1758 34.856C20.0609 34.452 19.5457 34.3148 19.2455 34.6113C19.1602 34.6966 19.3826 34.5039 19.2751 34.5891C19.1046 34.7225 19.3307 34.5409 19.1639 34.6373C19.0453 34.704 19.264 34.6484 19.1343 34.6447C19.1046 34.6447 19.0713 34.6447 19.0416 34.6447C18.9082 34.6336 19.1195 34.6669 19.0416 34.6447C18.9972 34.6336 18.8155 34.578 18.8785 34.6002C18.923 34.6187 18.7266 34.515 18.671 34.4816C18.5487 34.4075 18.5969 34.4371 18.456 34.3111C18.3448 34.2111 18.2448 34.0999 18.1447 33.985C17.8927 33.6885 17.6888 33.3549 17.4961 33.0213C17.207 32.5173 16.955 31.9873 16.7289 31.4499C16.462 30.8124 16.0766 30.0748 16.0099 29.3818C15.9506 28.7628 16.2397 28.1624 16.7919 27.8622C17.2144 27.6324 17.7889 27.6546 18.2596 27.5953C18.9601 27.5064 18.9675 26.3945 18.2596 26.4834C17.6592 26.5576 16.992 26.5501 16.4287 26.8022C15.832 27.0727 15.3539 27.562 15.1018 28.1661C14.7979 28.8925 14.8646 29.6375 15.1241 30.3639C15.4132 31.1756 15.7319 31.9799 16.1025 32.7545C16.6474 33.8849 17.6555 35.8566 19.1936 35.7455C19.4938 35.7232 19.8088 35.6083 20.0275 35.3934L19.0972 35.1487C20.3944 39.6778 23.315 44.9259 28.4482 45.7376C30.6683 46.0897 32.8995 45.4004 34.697 44.0772C37.6065 41.9313 39.2558 38.5474 40.2305 35.1487L39.3002 35.3934C39.8969 35.9827 40.8235 35.7529 41.4165 35.297C42.1911 34.7003 42.7137 33.7885 43.1399 32.925C43.5254 32.1504 43.8479 31.3461 44.1406 30.5307C44.4334 29.7153 44.5557 28.9667 44.2222 28.1661C43.9294 27.4656 43.3401 26.9282 42.6099 26.7095C41.7353 26.4501 40.8383 26.7095 40.0304 27.0542L40.7902 27.814C41.5388 26.6725 41.5203 25.0787 40.4974 24.1114C39.4744 23.1441 38.1179 23.1552 37.0839 22.3509C36.3463 21.7764 35.8719 20.9536 35.6347 20.0567C35.5013 19.5453 35.4272 19.1264 35.4605 18.5816C35.4976 17.959 34.5043 17.8218 34.3672 18.4334C33.8853 20.609 32.4732 23.2775 30.0567 23.7853C29.0301 24.0002 27.9516 23.7519 27.0027 23.3479C25.75 22.8179 24.6233 22.173 23.2483 22.0062C21.4581 21.7913 19.8496 22.5399 18.8341 24.0113C18.2633 24.8415 17.8445 25.883 17.7111 26.8874H18.7822C17.5962 23.359 17.7333 19.1598 20.1202 16.1392C21.7139 14.1229 24.2304 12.6812 26.81 12.5626C27.7959 12.5181 28.7706 12.6553 29.7083 12.9555C30.0604 13.0667 30.394 13.2075 30.7313 13.3594C31.0686 13.5114 31.2316 13.5003 31.5393 13.378C32.8846 12.8554 34.356 12.5848 35.7978 12.7405C37.2395 12.8962 38.5775 13.5485 39.5004 14.7234C40.3158 15.7611 40.8643 17.0139 41.2349 18.274C42.0762 21.1278 42.206 24.9008 39.9081 27.1394C39.3966 27.6398 40.1823 28.4255 40.6938 27.9252L40.7234 27.9363Z" fill="#252B37"/>
<path d="M8.68025 16.1872V8.55594L8.1243 9.11189H15.7556C16.4709 9.11189 16.4709 8 15.7556 8H8.1243C7.82409 8 7.56836 8.25573 7.56836 8.55594V16.1872C7.56836 16.9025 8.68025 16.9025 8.68025 16.1872Z" fill="#4389FA"/>
<path d="M15.7556 42.1196H8.1243L8.68025 42.6756V35.0443C8.68025 34.329 7.56836 34.329 7.56836 35.0443V42.6756C7.56836 42.9758 7.82409 43.2315 8.1243 43.2315H15.7556C16.4709 43.2315 16.4709 42.1196 15.7556 42.1196Z" fill="#4389FA"/>
<path d="M43.0482 9.11189H50.6795L50.1235 8.55594V16.1872C50.1235 16.9025 51.2354 16.9025 51.2354 16.1872V8.55594C51.2354 8.25573 50.9797 8 50.6795 8H43.0482C42.3329 8 42.3329 9.11189 43.0482 9.11189Z" fill="#4389FA"/>
<path d="M50.1235 35.0487V42.68L50.6795 42.124H43.0482C42.3329 42.124 42.3329 43.2359 43.0482 43.2359H50.6795C50.9797 43.2359 51.2354 42.9802 51.2354 42.68V35.0487C51.2354 34.3334 50.1235 34.3334 50.1235 35.0487Z" fill="#4389FA"/>
</g>
<path d="M71.4424 60.4016H68.9404C67.3572 60.4016 65.774 60.4016 64.1908 60.4016C63.2665 60.4016 62.3423 60.4108 61.418 60.4016C60.4424 60.3924 59.6097 59.6234 59.5767 58.6281C59.5731 58.4864 59.5767 58.3429 59.5767 58.2012V38.736C59.5767 37.9909 59.4925 37.2089 60.0306 36.6036C60.4498 36.1308 61.0043 35.9781 61.6101 35.9781H71.1642C71.6858 35.9781 72.1836 36.0425 72.6064 36.3939C73.064 36.7766 73.2745 37.3212 73.2745 37.9081V43.8727C73.2745 45.4881 73.2745 47.1016 73.2745 48.717C73.2745 50.3323 73.2745 51.8612 73.2745 53.4343V57.0477C73.2745 57.5518 73.2799 58.0577 73.2745 58.5618C73.2616 59.5756 72.4545 60.3869 71.446 60.4016C71.0928 60.4072 71.0928 60.9591 71.446 60.9536C72.6174 60.9352 73.6387 60.0723 73.7979 58.893C73.8272 58.6759 73.8235 58.4606 73.8235 58.2417C73.8235 57.3733 73.8235 56.5049 73.8235 55.6365V38.5594C73.8235 38.3331 73.8235 38.1068 73.8235 37.8786C73.8217 37.1629 73.5472 36.4693 72.9944 36.002C72.4856 35.5697 71.8834 35.4243 71.2337 35.4243H69.8427C68.2742 35.4243 66.7074 35.4243 65.1389 35.4243C63.9566 35.4243 62.7742 35.4243 61.59 35.4243C60.9201 35.4243 60.2942 35.5954 59.789 36.0627C59.2839 36.53 59.0276 37.1997 59.0258 37.8897C59.024 38.5796 59.0258 39.2419 59.0258 39.919C59.0258 41.2584 59.0258 42.5978 59.0258 43.939V57.2592C59.0258 57.8241 58.9709 58.4275 59.0642 58.9887C59.2528 60.1238 60.2759 60.9425 61.4033 60.9554C61.6632 60.9591 61.925 60.9554 62.1849 60.9554H66.4915C67.9063 60.9554 69.3211 60.9554 70.7359 60.9554H71.4424C71.7956 60.9554 71.7956 60.4035 71.4424 60.4035V60.4016Z" fill="#252B37"/>
<path d="M59.4095 38.9113H73.5465C73.8997 38.9113 73.8997 38.3594 73.5465 38.3594H59.4095C59.0562 38.3594 59.0562 38.9113 59.4095 38.9113Z" fill="#252B37"/>
<path d="M64.679 37.4777H67.9442C68.2974 37.4777 68.2974 36.9258 67.9442 36.9258H64.679C64.3258 36.9258 64.3258 37.4777 64.679 37.4777Z" fill="#252B37"/>
<path d="M63.7454 52.3254H68.839C69.1923 52.3254 69.1923 51.7734 68.839 51.7734H63.7454C63.3922 51.7734 63.3922 52.3254 63.7454 52.3254Z" fill="#252B37"/>
<path d="M64.6048 53.7971H68.1061C68.4593 53.7971 68.4593 53.2451 68.1061 53.2451H64.6048C64.2515 53.2451 64.2515 53.7971 64.6048 53.7971Z" fill="#252B37"/>
<path d="M74.0854 36.8543C74.2447 37.259 74.6857 37.4724 75.0994 37.3455C75.8187 37.1247 76.4355 37.9011 76.0603 38.5561C75.8443 38.9332 75.9541 39.4134 76.311 39.6581C76.9315 40.085 76.7119 41.0546 75.9688 41.1686C75.5423 41.2349 75.2367 41.6194 75.2678 42.0517C75.3227 42.8061 74.4313 43.2366 73.8786 42.7233C73.562 42.4289 73.0715 42.4289 72.753 42.7233C72.2002 43.2366 71.3089 42.8042 71.3638 42.0517C71.3949 41.6175 71.0893 41.233 70.6628 41.1686C69.9197 41.0546 69.7001 40.085 70.3206 39.6581C70.6775 39.4134 70.7854 38.9332 70.5713 38.5561C70.1961 37.9011 70.8129 37.1229 71.5322 37.3455C71.9458 37.4724 72.3869 37.259 72.5462 36.8543C72.8225 36.1514 73.8109 36.1514 74.0873 36.8543H74.0854Z" fill="url(#paint0_linear_328_103699)"/>
<path d="M71.8698 39.6948C72.0986 40.0039 72.3292 40.3148 72.558 40.6239C72.6696 40.7766 72.8417 40.8024 72.9899 40.6791C73.5811 40.1915 74.1704 39.7022 74.7616 39.2146C74.8476 39.1447 74.9337 39.0729 75.0179 39.003C75.1332 38.9092 75.1149 38.7105 75.0179 38.613C74.9044 38.4989 74.7452 38.5173 74.6298 38.613C74.0387 39.1005 73.4493 39.5899 72.8581 40.0775C72.7721 40.1474 72.6861 40.2191 72.6019 40.2891L73.0339 40.3442C72.8051 40.0352 72.5745 39.7242 72.3457 39.4151C72.2578 39.2956 72.1077 39.2348 71.9705 39.3158C71.8533 39.3839 71.7838 39.5734 71.8716 39.693L71.8698 39.6948Z" fill="white"/>
<path d="M59.083 44.519C60.4063 45.805 62.103 46.7396 63.8857 47.1904C66.5816 47.8729 69.4643 47.4093 71.8418 45.9742C72.5245 45.5621 73.1706 45.0764 73.7453 44.519C73.9997 44.2724 73.6117 43.8824 73.3573 44.1289C72.0962 45.3542 70.4838 46.2355 68.7853 46.6623C66.2064 47.31 63.4665 46.8445 61.2043 45.4609C60.582 45.0801 59.9963 44.6385 59.471 44.1289C59.2166 43.8824 58.8286 44.2724 59.083 44.519Z" fill="#252B37"/>
<path d="M66.5039 50.7671C69.0108 50.7671 71.043 48.7243 71.043 46.2043C71.043 43.6844 69.0108 41.6416 66.5039 41.6416C63.9971 41.6416 61.9648 43.6844 61.9648 46.2043C61.9648 48.7243 63.9971 50.7671 66.5039 50.7671Z" fill="#C1D9E5"/>
<path d="M67.5313 45.8949C67.5258 46.3291 67.2604 46.7375 66.8486 46.8865C66.4368 47.0355 65.9389 46.9123 65.6534 46.5535C65.3825 46.215 65.3551 45.7238 65.5766 45.3503C65.798 44.9768 66.2373 44.7726 66.6619 44.8498C67.1671 44.9418 67.5258 45.3815 67.5331 45.893C67.5386 46.2481 68.0877 46.2481 68.0822 45.893C68.073 45.216 67.6576 44.6217 67.0298 44.3807C66.402 44.1397 65.6736 44.3457 65.2563 44.8572C64.839 45.3687 64.7566 46.1285 65.1043 46.7154C65.4521 47.3023 66.1293 47.5912 66.7918 47.4716C67.5404 47.3354 68.073 46.6437 68.084 45.893C68.0895 45.5379 67.5404 45.5379 67.5349 45.893L67.5313 45.8949Z" fill="#252B37"/>
<path d="M69.6458 49.2894C69.1681 47.9812 67.9418 47.0742 66.5417 47.0742C65.1415 47.0742 63.8823 48.007 63.4211 49.3409C63.3039 49.6776 63.8347 49.8211 63.95 49.4881C64.3307 48.3878 65.3795 47.6262 66.5417 47.6262C67.7039 47.6262 68.7215 48.3602 69.115 49.4365C69.2358 49.7677 69.7666 49.6242 69.644 49.2894H69.6458Z" fill="#252B37"/>
<path d="M70.2814 57.5316H63.8461C63.4471 57.5316 63.0426 57.5519 62.6436 57.5316C62.1184 57.504 62.1733 56.9797 62.1733 56.5988V55.9439C62.1733 55.782 62.1659 55.6219 62.2721 55.4839C62.4167 55.2962 62.6235 55.3036 62.8322 55.3036H68.7933C69.2802 55.3036 69.7707 55.2834 70.2576 55.3036C70.6328 55.3183 70.7499 55.598 70.7499 55.9273C70.7499 56.3008 70.77 56.6798 70.7499 57.0514C70.7353 57.3182 70.5504 57.5187 70.2795 57.5298C69.9281 57.5445 69.9263 58.0964 70.2795 58.0817C70.9238 58.056 71.299 57.5519 71.299 56.9355C71.299 56.5492 71.3118 56.1628 71.299 55.7764C71.2788 55.1951 70.8378 54.7664 70.2631 54.7517C70.0873 54.7461 69.9116 54.7517 69.7359 54.7517H64.3C63.7564 54.7517 63.2092 54.7369 62.6656 54.7517C62.122 54.7664 61.6553 55.173 61.6242 55.7452C61.604 56.1297 61.6242 56.5197 61.6242 56.9061C61.6242 57.1269 61.6388 57.3384 61.745 57.5408C61.9097 57.8554 62.2355 58.0523 62.5832 58.0799C62.7187 58.0909 62.8596 58.0817 62.9951 58.0817H70.2814C70.6346 58.0817 70.6346 57.5298 70.2814 57.5298V57.5316Z" fill="#252B37"/>
<defs>
<linearGradient id="paint0_linear_328_103699" x1="73.3158" y1="36.3271" x2="73.3158" y2="42.9472" gradientUnits="userSpaceOnUse">
<stop stop-color="#3B82F6"/>
<stop offset="1" stop-color="#9DC1FB"/>
</linearGradient>
<clipPath id="clip0_328_103699">
<rect width="47.0069" height="52.9852" fill="white" transform="translate(6 8)"/>
</clipPath>
</defs>
</svg>

<svg xmlns="http://www.w3.org/2000/svg" width="80" height="68" fill="none" viewBox="0 0 80 68"><g clip-path="url(#a)"><path fill="#4389fa" fill-opacity=".25" d="M53.007 60.985H6c0-10.166 8.243-18.41 18.41-18.41-.064.153-1.502 3.852.818 6.798 1.531 1.946 3.729 2.328 4.277 2.406.549-.067 2.728-.39 4.274-2.272 1.534-1.868 1.838-4.552.822-6.935 1.18-.007 7.847.056 13.154 5.441 5.189 5.263 5.263 11.742 5.256 12.968z"/><path fill="#252b37" d="M40.723 27.936c2.428-2.364 2.543-6.2 1.787-9.299-.374-1.538-.993-3.076-1.938-4.355-1.035-1.4-2.417-2.28-4.159-2.568-1.742-.29-3.71-.008-5.393.7l.43.056c-3.235-1.59-6.945-1.212-9.877.849-2.428 1.708-4.01 4.299-4.455 7.242-.337 2.227-.096 4.496.619 6.627.156.463.993.589 1.071 0 .111-.838.4-1.594.797-2.269.79-1.345 2.146-2.042 3.766-1.779 1.367.223 2.498.997 3.784 1.45 1.019.359 2.116.492 3.18.281 1.712-.34 3.024-1.63 3.888-3.087.552-.93 1.004-1.987 1.238-3.047l-1.094-.148c-.078 1.271.36 2.672 1.12 3.68s1.764 1.557 2.935 1.939c.856.278 1.797.823 1.805 1.794 0 .474-.137.885-.382 1.26-.337.515.3.96.76.76.986-.427 2.364-.486 2.683.808.167.678-.178 1.352-.415 1.971-.237.62-.49 1.205-.79 1.783-.34.656-.726 1.342-1.304 1.82-.074.06.026-.015-.07.052q-.068.045-.134.085l-.111.06c-.07.036.089-.03-.04.01-.038.012-.075.019-.112.03-.119.033.096-.007.015 0-.063.004-.122 0-.185 0 .166.007.037 0-.045-.026.037.011.096.063-.007-.011-.145-.1.085.085.003.007a.562.562 0 0 0-.93.245c-1.227 4.277-3.87 9.006-8.573 9.814-.166.03.004 0-.037.008q-.066.006-.133.015a4 4 0 0 1-.208.014c-.07.004-.133 0-.203.004-.364 0-.727.011-1.09-.018-.045-.004-.09-.012-.134-.015-.033-.004.123.022-.037-.008-.122-.022-.24-.04-.363-.067a7 7 0 0 1-.9-.252 8.6 8.6 0 0 1-2.161-1.137c-2.736-1.954-4.248-5.219-5.148-8.358a.562.562 0 0 0-.93-.245c-.086.086.137-.107.03-.022-.171.133.055-.048-.112.048-.119.067.1.011-.03.008h-.092c-.134-.011.077.022 0 0-.045-.011-.227-.067-.164-.045.045.019-.151-.085-.207-.118-.122-.075-.074-.045-.215-.17a4 4 0 0 1-.311-.327 6.5 6.5 0 0 1-.649-.964 14 14 0 0 1-.767-1.571c-.267-.638-.652-1.375-.72-2.068-.058-.62.23-1.22.783-1.52.422-.23.997-.207 1.468-.267.7-.089.707-1.2 0-1.112-.6.075-1.268.067-1.831.32a2.6 2.6 0 0 0-1.327 1.363c-.304.726-.237 1.471.022 2.198.29.812.608 1.616.978 2.39.545 1.13 1.553 3.103 3.092 2.992.3-.023.615-.138.834-.353l-.93-.244c1.296 4.529 4.217 9.777 9.35 10.589 2.22.352 4.452-.338 6.249-1.66 2.91-2.147 4.559-5.53 5.533-8.93l-.93.245c.597.59 1.524.36 2.117-.096.774-.597 1.297-1.508 1.723-2.372.385-.775.708-1.579 1-2.394s.416-1.564.082-2.365a2.54 2.54 0 0 0-1.612-1.457c-.875-.259-1.772 0-2.58.345l.76.76c.749-1.142.73-2.735-.293-3.703-1.023-.967-2.38-.956-3.413-1.76-.738-.575-1.212-1.397-1.45-2.294-.133-.512-.207-.93-.173-1.475.037-.623-.957-.76-1.094-.149-.482 2.176-1.894 4.845-4.31 5.352-1.027.215-2.105-.033-3.054-.437-1.253-.53-2.38-1.175-3.755-1.342-1.79-.215-3.398.534-4.414 2.005-.57.83-.99 1.872-1.123 2.876h1.071c-1.186-3.528-1.049-7.727 1.338-10.748 1.594-2.016 4.11-3.458 6.69-3.576a8.3 8.3 0 0 1 2.898.393c.352.11.686.252 1.023.403.338.152.5.141.808.019 1.346-.523 2.817-.793 4.259-.637 1.441.155 2.78.808 3.702 1.982.816 1.038 1.364 2.29 1.735 3.551.841 2.854.971 6.627-1.327 8.865-.511.5.274 1.287.786.786z"/><path fill="#4389fa" d="M8.68 16.187V8.556l-.556.556h7.632c.715 0 .715-1.112 0-1.112H8.124c-.3 0-.556.256-.556.556v7.631c0 .715 1.112.715 1.112 0m7.076 25.933H8.124l.556.556v-7.632c0-.715-1.112-.715-1.112 0v7.632c0 .3.256.555.556.555h7.632c.715 0 .715-1.111 0-1.111M43.048 9.112h7.631l-.556-.556v7.631c0 .715 1.112.715 1.112 0V8.556c0-.3-.255-.556-.556-.556h-7.63c-.716 0-.716 1.112 0 1.112m7.075 25.937v7.631l.555-.556h-7.63c-.716 0-.716 1.112 0 1.112h7.63c.3 0 .556-.256.556-.556v-7.631c0-.716-1.111-.716-1.111 0"/></g><path fill="#252b37" d="M71.442 60.402H64.19c-.923 0-1.848.009-2.772 0-.976-.01-1.808-.779-1.841-1.774-.004-.142 0-.285 0-.427V38.736c0-.745-.084-1.527.454-2.132.419-.473.973-.626 1.58-.626h9.553c.522 0 1.02.064 1.442.416.458.383.669.927.669 1.514v19.14c0 .504.005 1.01 0 1.514a1.855 1.855 0 0 1-1.829 1.84c-.353.005-.353.557 0 .552 1.171-.019 2.193-.882 2.352-2.061.03-.217.025-.432.025-.651V37.879c-.001-.716-.276-1.41-.829-1.877-.508-.432-1.11-.578-1.76-.578H61.59c-.67 0-1.296.171-1.801.639s-.761 1.137-.763 1.827 0 1.352 0 2.029v17.34c0 .565-.055 1.169.038 1.73.189 1.135 1.212 1.954 2.34 1.966.26.004.521 0 .78 0h9.258c.354 0 .354-.551 0-.551z"/><path fill="#252b37" d="M59.41 38.911h14.136c.354 0 .354-.552 0-.552H59.41c-.353 0-.353.552 0 .552m5.269-1.433h3.265c.353 0 .353-.552 0-.552H64.68c-.353 0-.353.552 0 .552m-.935 14.847h5.094c.353 0 .353-.552 0-.552h-5.094c-.353 0-.353.552 0 .552m.86 1.472h3.501c.353 0 .353-.552 0-.552h-3.501c-.354 0-.354.552 0 .552"/><path fill="url(#b)" d="M74.085 36.854a.83.83 0 0 0 1.014.492c.72-.221 1.337.555.961 1.21a.834.834 0 0 0 .251 1.102c.62.427.4 1.397-.342 1.51a.833.833 0 0 0-.701.884c.055.754-.837 1.185-1.39.671a.83.83 0 0 0-1.125 0c-.553.514-1.444.081-1.39-.671a.83.83 0 0 0-.7-.883c-.743-.114-.963-1.084-.342-1.51a.836.836 0 0 0 .25-1.103c-.375-.655.242-1.433.961-1.21a.83.83 0 0 0 1.014-.492.827.827 0 0 1 1.541 0z"/><path fill="#fff" d="m71.87 39.695.688.929c.112.153.284.178.432.055q.885-.733 1.772-1.464l.256-.212c.115-.094.097-.292 0-.39-.114-.114-.273-.096-.388 0l-1.772 1.465-.256.211.432.055-.688-.929c-.088-.12-.238-.18-.376-.1-.117.069-.186.258-.098.378z"/><path fill="#252b37" d="M59.083 44.519a10.74 10.74 0 0 0 4.803 2.671c2.696.683 5.578.22 7.956-1.216a10.6 10.6 0 0 0 1.903-1.455c.255-.247-.133-.637-.388-.39a10.2 10.2 0 0 1-4.572 2.533c-2.579.648-5.318.182-7.58-1.201a10 10 0 0 1-1.734-1.332c-.254-.247-.642.143-.388.39"/><path fill="#c1d9e5" d="M66.504 50.767c2.507 0 4.539-2.043 4.539-4.563s-2.032-4.562-4.54-4.562c-2.506 0-4.538 2.042-4.538 4.562s2.032 4.563 4.539 4.563"/><path fill="#252b37" d="M67.531 45.895c-.005.434-.27.842-.682.991s-.91.026-1.196-.333a1.07 1.07 0 0 1-.076-1.203c.221-.373.66-.577 1.085-.5.505.092.864.532.871 1.043.006.355.555.355.55 0a1.64 1.64 0 0 0-1.053-1.512 1.585 1.585 0 0 0-1.774.476c-.417.512-.5 1.272-.152 1.858a1.62 1.62 0 0 0 1.688.757c.748-.137 1.281-.828 1.292-1.579.005-.355-.544-.355-.55 0z"/><path fill="#252b37" d="M69.646 49.29c-.478-1.309-1.704-2.216-3.104-2.216s-2.66.933-3.12 2.267c-.118.337.413.48.528.147a2.77 2.77 0 0 1 2.592-1.862c1.162 0 2.18.734 2.573 1.81.12.332.652.188.529-.147zm.635 8.242h-6.435c-.399 0-.803.02-1.202 0-.526-.028-.47-.552-.47-.933v-.655c0-.162-.008-.322.098-.46.145-.188.352-.18.56-.18h5.961c.487 0 .978-.02 1.465 0 .375.014.492.294.492.623 0 .374.02.753 0 1.124-.015.267-.2.468-.47.479-.352.014-.354.566 0 .552.644-.026 1.019-.53 1.019-1.147 0-.386.013-.772 0-1.159a1.04 1.04 0 0 0-1.036-1.024c-.176-.006-.351 0-.527 0H64.3c-.544 0-1.09-.015-1.634 0s-1.01.421-1.042.993c-.02.385 0 .775 0 1.161 0 .22.015.432.121.635.165.314.49.511.838.539.136.01.277.002.412.002h7.286c.354 0 .354-.552 0-.552z"/><defs><linearGradient id="b" x1="73.316" x2="73.316" y1="36.327" y2="42.947" gradientUnits="userSpaceOnUse"><stop stop-color="#3b82f6"/><stop offset="1" stop-color="#9dc1fb"/></linearGradient><clipPath id="a"><path fill="#fff" d="M6 8h47.007v52.985H6z"/></clipPath></defs></svg>
